X: 10451
T: Donegal Tinker, The
R: reel
M: 4/4
K: Dmixolydian
||Ad~d2 AGEG|ADdc (3ABc Gc|Ad{e}dc ABcA|GE{G}ED CDEG|
Ad~d2 fd~d2|ad~d2 (3 ABc Gc|Ad{e}dc ABcA|GE{G}ED CDEG||
|:AD (3FED A,D (3FED|ADdD cDBD|ADDG ~E3G|AdcA G2FG:|
|:~d3B ~c3G|Ad~d2 adfe|~d3B cBcA|(3Bcd ef g2 fe:|
ad~d2 adbd|ad~d2 abgb|ad~d2 adbd|^cdef gabg|
ad~d2 adbd|ad~d2 a2 fg|~a3g (3fga ed|^cdef g3||

